X:1
T:Title
%%score { ( 1 3 ) | ( 2 4 ) }
L:1/8
Q:1/4=100
M:6/8
K:A
V:1 treble nm="Grand Piano"
V:3 treble 
V:2 bass 
V:4 bass 
V:1
 [Ec]>[DB][CA] [Ec]>[DB][CA] | GBd [Ec]3 | e>dc e>d[Ec] | [^Dc][DB][DA] [EB]3 | %4
w: Adam~Geibel * * * * *||||
 [Ec]>[DB][CA] [Ec]>[DB][CA] | GBd [Ec]3 | e>dc [Fd][DF][FB] |[M:15/16] Gc/-c/B[A,CA]3/2- [A,CA]3 | %8
w: ||||
[M:4/4] C2- [C-F]2 [C-A]2 [CF]2 | [A,A]4 G4 | F2 G2 F2 G2 | %11
w: |||
 [E,E]2- [E,-G,DE-]2 [E,-A,CE-]2 [E,B,E]2 | F2 z2[K:treble] [^A,EF]4 | c2 z2 [D^EA]2 [B,EA]2 | %14
w: |||
 E4 E4 | [CE]8 |] %16
w: ||
V:2
 [A,,A,]>[A,,A,][A,,A,] [A,,A,]>[A,,A,][A,,A,] | [E,B,E][E,G,E][E,G,E] [A,,A,]3 | %2
 [A,CE]>[A,B,E][A,E] [A,CE]>[A,B,E][A,,A,] | [B,,A,][B,,A,][B,,F,] [E,G,]3 | %4
 [A,,A,]>[A,,A,][A,,A,] [A,,A,]>[A,,A,][A,,A,] | [E,B,E][E,G,E][E,G,E] [A,,A,]3 | %6
 [A,C=G]>[A,B,G][A,G][K:bass] [D,A,][D,A,][D,D] | %7
[M:15/16] [E,B,E][E,G,E]/-[E,G,E]/[E,G,D]A,,3/2- A,,3 |[M:4/4] z2 F,2 A,2 F,2 | z4 G,4 | %10
 [D,B,]2- [D,-G,B,-]2 [D,-F,B,-]2 [D,G,B,]2 | C,2 B,,2 A,,2 =G,,2 | z2[K:treble] =G2 z2 c2 | %13
 z2 B2 B,,2 D,2 | z2 A,2 [G,B,]2 B,2 | [A,,A,]8 |] %16
V:3
 x6 | x6 | x6 | x6 | x6 | x6 | x6 |[M:15/16] x15/2 |[M:4/4] [E,E]2 z2 z4 | D8 | x8 | A,2 z2 z4 | %12
 [F,^A,E]4[K:treble] z4 | [DF]4 z4 | C2 C2 z2 D2 | x8 |] %16
V:4
 x6 | x6 | x6 | x6 | x6 | x6 | x3[K:bass] x3 |[M:15/16] x15/2 |[M:4/4] A,,8 | B,,8 | F,2 z2 z4 | %11
 x8 | F,,4[K:treble] F,4 | [B,,F,B,]4 z4 | E,4 E,4 | x8 |] %16

